X:2200
L:1/8
M:2/2
K:A
 E2 | A2 (cB) AGAF | E2 C2 C2 E2 | A2 (cB) Acec | BABc BdcB | A2 (cB) AGAF | E2 C2 C2 (cd) | 
 efec BABc | A2 [CA]2 [CA]2 :: (cd) | ecea fdfa | ecec A2 (Bc) | defe dcBA | GABG E2 (cd) | 
 ecea fdfa | gegb a2 c2 |{e} dcde{g} fefg | a2 [CA]2 [CA]2 :|

